assets/svg/flashcards.svg

<svg height="15" viewBox="0 0 14 15" width="14" xmlns="http://www.w3.org/2000/svg"><path d="m7.04535373 9.54485258h-5.36243353c-.577901 0-.89359629-.67402259-.52363309-1.11797843l6.81617527-8.17941032c.435726-.5228712 1.28440831-.15446474 1.19998708.52090516l-.58584731 4.68677843h5.36243355c.577901 0 .8935963.67402259.5236331 1.11797843l-6.8161753 8.17941035c-.435726.5228712-1.28440832.1544647-1.19998708-.5209052zm-3.90715175-1.36323505h4.67927596c.40999157 0 .72720719.35933621.67635399.76616177l-.3932514 3.1460112 4.39617337-5.27540803h-4.67927596c-.40999157 0-.72720719-.35933621-.67635399-.76616177l.3932514-3.14601121z" fill="#102b44" transform="translate(-1)"/></svg>

<svg width="14px" height="15px" viewBox="0 0 14 15" version="1.1" xmlns="http://www.w3.org/2000/svg" xmlns:xlink="http://www.w3.org/1999/xlink">
    <!-- Generator: Sketch 51.3 (57544) - http://www.bohemiancoding.com/sketch -->
    <desc>Created with Sketch.</desc>
    <defs></defs>
    <g id="Symbols" stroke="none" stroke-width="1" fill="none" fill-rule="evenodd">
        <g id="Flash_Cars/Black" transform="translate(-1.000000, 0.000000)" fill="#102B44" fill-rule="nonzero">
            <path d="M7.04535373,9.54485258 L1.6829202,9.54485258 C1.1050192,9.54485258 0.789323908,8.87082999 1.15928711,8.42687415 L7.97546238,0.247463829 C8.41118838,-0.275407374 9.25987069,0.0929990878 9.17544946,0.768368985 L8.58960215,5.45514742 L13.9520357,5.45514742 C14.5299367,5.45514742 14.845632,6.12917001 14.4756688,6.57312585 L7.6594935,14.7525362 C7.2237675,15.2754074 6.37508518,14.9070009 6.45950642,14.231631 L7.04535373,9.54485258 Z M3.13820198,8.18161753 L7.81747794,8.18161753 C8.22746951,8.18161753 8.54468513,8.54095374 8.49383193,8.9477793 L8.10058053,12.0937905 L12.4967539,6.81838247 L7.81747794,6.81838247 C7.40748637,6.81838247 7.09027075,6.45904626 7.14112395,6.0522207 L7.53437535,2.90620949 L3.13820198,8.18161753 Z" id="Shape"></path>
        </g>
    </g>
</svg>
